img/svg/social/viber.svg

<svg fill="none" height="16" viewBox="0 0 16 16" width="16" xmlns="http://www.w3.org/2000/svg"><path d="m15.9998 3.76206v5.86755c0 1.85079-1.5072 3.35289-3.3644 3.35289h-3.02799l-4.03732 3.0176v-3.0176h-1.68222c-1.85717 0-3.364432-1.5021-3.364432-3.35289v-5.86755c0-1.85079 1.507262-3.35288 3.364432-3.35288h8.74753c1.8572 0 3.3644 1.50209 3.3644 3.35288z" fill="#bb6bd9"/><g fill="#fff"><path d="m10.6839 9.79402c.1345.13076.1345.34538 0 .47608l-1.54431 1.539s-1.48035-.1844-3.73789-2.43754c-2.2609-2.25314-2.44931-3.72506-2.44931-3.72506l1.54764-1.54232c.13118-.13077.34318-.13077.47439 0l1.66539 1.65967c.13122.13077.13122.34535 0 .47611l-.71326.71082 1.90431 1.89438.71326-.71082c.13118-.13076.34314-.13076.47771 0z"/><path d="m11.7941 7.11493h-.6728c0-1.6639-1.3584-3.0176-3.02804-3.0176v-.67057c2.04064 0 3.70084 1.65451 3.70084 3.68817z"/><path d="m10.2801 6.94744h-.67284c0-.83195-.67915-1.5088-1.514-1.5088v-.67057c1.20585 0 2.18684.97766 2.18684 2.17937z"/><path d="m13.3081 7.28267h-.6729c0-2.49586-2.0375-4.5264-4.54194-4.5264v-.67058c2.87554 0 5.21484 2.33137 5.21484 5.19698z"/></g></svg>

<svg fill="none" height="16" width="16" xmlns="http://www.w3.org/2000/svg"><path d="M16 3.762V9.63a3.36 3.36 0 01-3.365 3.352H9.607L5.57 16v-3.018H3.888A3.36 3.36 0 01.523 9.63V3.762A3.36 3.36 0 013.888.41h8.747A3.36 3.36 0 0116 3.762z" fill="#bb6bd9"/><g fill="#fff"><path d="M10.684 9.794a.331.331 0 010 .476L9.14 11.81s-1.48-.185-3.738-2.438c-2.261-2.254-2.45-3.726-2.45-3.726L4.5 4.104a.336.336 0 01.474 0l1.666 1.66a.337.337 0 010 .476l-.713.71L7.83 8.846l.713-.71a.34.34 0 01.478 0zm1.11-2.679h-.673a3.026 3.026 0 00-3.028-3.018v-.67a3.699 3.699 0 013.701 3.688z"/><path d="M10.28 6.947h-.673c0-.832-.679-1.508-1.514-1.508v-.67c1.206 0 2.187.977 2.187 2.178zm3.028.336h-.673c0-2.496-2.037-4.527-4.542-4.527v-.67c2.876 0 5.215 2.331 5.215 5.197z"/></g></svg>
